X:1
T:Voi ch'amate lo Criatore
T:Voi ch'amate lo Criatore
T:laudario di Cortona
T:secolo XIII
L:1/8
Q:1/4=53
M:4/4
K:G
V:1 treble nm="Voce" snm="Vo."
V:1
"^\n" E2 B2 cB A2 | B2 d/c/ A/B/ !tenuto!c2 B2 | E2 B A/G/ F2 F2 | %3
w: Voi ch'a- ma _ te|lo Cri _ a _ to- re,|po- ne- te _ men- te|
 A A G/ F/ E !tenuto!F2 !fermata!E2!fine! || E2 F/G/ A !tenuto!F2 F2 | %5
w: a lo me- o do- lo- re.|Ch'io son _ Ma- ri- a|
 !tenuto!F2 G/F/ E !tenuto!F2 E2 | E2 F/G/ A F2 F !tenuto!F | GA (3B/c/B/A (3BA^G !fermata!A2 | %8
w: con lo _ cor tri- sto;|la qua\- _ lea\- ve\- a per|fi\- _ gliol _ _ _ Cri\- _ _ sto.|
 B2 c B A2 A d | dc A B !tenuto!c2 B2 | E E B A/G/ !tenuto!F2 F2 | %11
w: La spe\- me mi\- a et|dol\- _ ce a\- qui\- sto|fu\- e cro\- ci\- _ fi\- xo|
 A A G/F/ E !tenuto!F2 !fermata!E2 | E2 F/G/A !tenuto!F2 F2 | !tenuto!F2 G/F/ E F2 E2 | %14
w: per li pec\- _ ca\- to\- ri.|Ca\- po _ _ bel\- lo|et di\- _ li ca\- to|
 E2 F/G/ A F2 F2 | GA (3B/c/B/A (3BA^G !fermata!A2 | B2 c B A2 A d | dc A B !tenuto!c2 B2 | %18
w: co\- me _ ti veg\- gio|star _ en\- _ _ cli\- na _ _ to|Li tuoi ca\- pel\- li di|san\- _ guein trec\- cia\- ti|
 E2 B A/G/ !tenuto!F2 F2 | A2 G/ F/ E !tenuto!F2 !fermata!E2 | E2 (3FGA !tenuto!F2 F2 | %21
w: fin a la _ boc\- ca|ne va ir\- ri\- go\- re:|Boc\- ca _ _ bel\- la|
 F2 G/F/ E !tenuto!F2 E2 | E2 F/G/ A F2 F2 | G A (3B/c/B/ A (3BA^G !fermata!A2 | B2 c B A2 d2 | %25
w: et di\- _ li ca\- ta|co\- me _ ti veg\- gio|sta\- re as\- _ _ ser\- ra\- _ _ ta!|Di fie\- lea ce\- to|
 d c/c/ A B !tenuto!c2 B2 | E2 B A/ G/ !tenuto!F2 F2 | A2 G/F/ E !tenuto!F2 E2!D.C.! |] %28
w: fo\- sti a\- be\- ve\- ra\- ta,|tri\- sta e dol\- en\- te|den\- tr'al _ mio co\- re.|

